X:1
T:Title
%%score { ( 1 4 ) | ( 2 3 ) }
L:1/8
M:4/4
K:Bb
V:1 treble nm="Grand Piano"
V:4 treble 
V:2 bass 
V:3 bass 
V:1
 z4 z2[Q:1/4=100] [DF][DB] | [Fd]2 [Fd]2 [Fd]2 [Fc][FB] | [GB]2 AG F2 FF | BBBB A2 [=EB]2 | c6 z2 | %5
 d3 d dc B2 | [GB]3 [GB] [GB][FA] G2 | F d2 d [Ad] [Ac]3 |[M:7/8] [DFB]-[DFB]-[DFB]- [DFB]3 z | %9
[M:1/8] [DF] |[M:4/4] [DF]2 [DF][DF] [EG]<[GB] [GB][EG] | [EG]<[DF] [DF][DF] [EG]<[GB] [GB]G | %12
 F2 Bc d2 [=EBc][EGB] | [FAc]6 B-[Bc] | d2 dd c B2 [FA] | [EG]<[GB] [GB][EG] [EG]<[DF] D[CE] | %16
 [DF] [Fd]2 [Fd] [FAd] [EAc]3 |[M:3/4] [DFB]6 |] %18
V:2
 z4 z2 [B,,B,][B,,B,] | [B,,B,]2 [B,,B,]2 [B,,B,]2 [C,A,][D,B,] | %2
 z2[K:treble] F[G,B,E] [B,D]2 [B,D][B,D] | [G,B,D][G,B,D][G,B,D][G,B,D] [G,C=E]2 [C,C]2 | %4
 [F,A,F]6 z2 | [B,F]3 [B,FB] [B,FB][B,EF] [B,D_A]2 | [E,E]3 [E,E] [E,E][E,B,] [E,B,E]2 | %7
 [F,B,D] [F,B,F]2 [F,B,F] [F,F] [F,E]3 |[M:7/8] [B,,B,]-[B,,B,]-[B,,B,]- [B,,B,]3 z | %9
[M:1/8] [B,,B,] |[M:4/4] [B,,B,]2 [B,,B,][B,,B,] [E,B,]<[E,E] [E,E][E,B,] | %11
 [B,,B,]<[B,,B,] [B,,B,][B,,B,] [E,B,]<[E,E] [E,E][E,B,E] | %12
 [B,D]2 [B,DF][B,EF] [B,FB]2 G,[K:bass]G, | F,6[K:treble] z E | %14
 [B,FB]2 [B,FB][B,FB] [B,EF] [B,DF]2[K:bass] [D,B,] | %15
 [E,B,]<[E,E] [E,E][E,B,] [B,,B,]<[B,,B,] [B,,F,][B,,F,] | [B,,B,] [B,,B,]2 [D,B,] F, F,3 | %17
[M:3/4] B,,6 |] %18
V:3
 x8 | x8 | [E,B,]4[K:treble] z4 | x8 | x8 | x8 | x8 | x8 |[M:7/8] x7 |[M:1/8] x |[M:4/4] x8 | x8 | %12
 x7[K:bass] x | z4 z2[K:treble] B,2 | x7[K:bass] x | x8 | x8 |[M:3/4] x6 |] %18
V:4
 x8 | x8 | x8 | x8 | x8 | x8 | x8 | x8 |[M:7/8] x7 |[M:1/8] x |[M:4/4] x8 | x8 | x8 | z4 z2 .D2 | %14
 x8 | x8 | x8 |[M:3/4] x6 |] %18

